!!!SOCIAL_FUNCTION:	hand game songs
!!!PDT:	1922
!!!OTL: No_96_Hand_Game_Song_(c).krn
!!!REG: Southwest
!!!LANG: Non-Tone
!!!LING_GROUP: Uto-Aztecan
**kern	**kern
*staff2	*staff1
=	=
*clefF4	*clefF4
*k[f#c#g#]	*k[f#c#g#]
*M2/4	*M2/4
16r	16c#\
=1	=1
8GG#/L	8c#\
8GG#/J	8r
8GG#/L	8B\
8GG#/J	16r
.	16c#\
=2	=2
8GG#/L	8c#\
8GG#/J	8r
8GG#/L	8c#\
8GG#/J	16r
.	16A\
=3||	=3||
*M3/4	*M3/4
2.r	8A\
.	4.E\
.	(8.E\L
.	16A\Jk)
=4||	=4||
*M2/4	*M2/4
2r	8A\
.	8r
.	8E\
.	16r
.	16A\
=5	=5
2r	8A\
.	8r
.	8E\
.	16r
.	16A\
=6	=6
2r	8A\
.	8r
.	8A\
.	16r
.	16E\
=7	=7
2r	8E\
.	8r
.	8E\
.	16r
.	16A\
=8	=8
2r	8A\
.	8r
.	8E\
.	16r
.	16A\
=9	=9
2r	8A\
.	8r
.	8E\
.	16r
.	16E\
=10	=10
2r	8E\
.	16r
.	16E\
.	8E\
.	16r
.	16A\
=11||	=11||
*M3/4	*M3/4
2.r	8A\
.	16r
.	16E\
.	8E\
.	8r
.	8E\
.	8r
==:|!	==:|!
*-	*-
